!!!!SEGMENT: pl-kk--kk-i-11--007_anonim--o-salutaris-hostia.krn
!!!cenid: 16xx:1246
!!!COM: Anonim
!!!COM-rismID:
!!!CDT:
!!!CNT:
!!!OTL: O salutaris hostia
!!!PDT:
!!!AGN: Sacred
!!!SMS-siglum: PL-Kk
!!!SMS-shelfmark: Kk.I.11
!!!SMS-shelfwork: 007 W
!!!SMS-variant:
!!!SMS-altvar:
!!!NIFC-rismSourceID: 1001154157
!!!NIFC-islandoraID: pl-kk:2582
!!!URL-pdf-islandora: https://repozytorium.nifc.pl/islandora/object/pl-kk%3A2582/datastream/PDF/view
!!!URL-scan: https://polish.musicsources.pl/pl/lokalizacje/galeria/rekopisy/5745 @EN{Scan on Polish Music Herritage in Open Access Website} @PL{Skany w portalu Dziedzictwo Muzyki Polskiej w otwartym dostępie}
!!!ONB-nifc: UWAGA: T (skan 0022), B (0018), od drugiego systemu.
!!!AIN: 1 bass 1 tenor
!!!key:
**kern	**text	**text	**kern	**text	**text
*part2	*part2	*part2	*part1	*part1	*part1
*staff2	*staff2	*staff2	*staff1	*staff1	*staff1
*Ibass	*	*	*Itenor	*	*
*I"[Bassus]	*	*	*I"[Tenor]	*	*
*I'B	*	*	*I'T	*	*
*clefF4	*	*	*clefC4	*	*
*k[b-]	*	*	*k[b-]	*	*
*F:	*	*	*F:	*	*
*M2/1	*	*	*M2/1	*	*
*met(c|)	*	*	*met(c|)	*	*
*all\right	*	*	*all\right	*	*
*2\right	*	*	*2\right	*	*
=1-	=1-	=1-	=1-	=1-	=1-
!LO:TX:t=O Salutaris Vni Trino Intona	!	!	!LO:TX:t=O Salutaris\n Vni Trino Intona	!	!
1F	Quae	Sit	2A/	Quae	Sit
.	.	.	1c	Cae-	ſem-
4C/	Cae-	.	.	.	.
4D/	.	.	.	.	.
4E\	.	.	4G/	-li	-pi-
4F\	.	.	4A/	.	.
=2-	=2-	=2-	=2-	=2-	=2-
1G	.	.	2.B-\	pan-	-ter-
.	.	.	8A/L	.	.
.	.	.	8G/J	.	.
2D,/	-li	.	4F/	.	.
.	.	.	4G/	.	.
2F\	pan-	.	4A\	.	.
.	.	.	4B-\	.	.
=3-	=3-	=3-	=3-	=3-	=3-
1C	-dis	.	1c	.	.
*lig	*	*	*	*	*
1D	O-	.	1A	-dis	na
=4-	=4-	=4-	=4-	=4-	=4-
1.C	.	.	1.c	os-	glo-
*Xlig	*	*	*	*	*
2C/	-ſti-	.	2c\	-ti-	-ri-
=5-	=5-	=5-	=5-	=5-	=5-
1FF,	-um	.	1A,	-um	-a
1F	bel-	.	1A	bel-	qui
=6-	=6-	=6-	=6-	=6-	=6-
1C	-la	.	1c	-la	vi-
1F	prae-	.	1c	prae-	-tam
=7-	=7-	=7-	=7-	=7-	=7-
4BB-/	.	.	1d	munt	ſi-
4C/	.	.	.	.	.
4D/	.	.	.	.	.
4E/	.	.	.	.	.
2F\	.	.	1c	ho-	-ne
2FF,/	-munt	.	.	.	.
=8-	=8-	=8-	=8-	=8-	=8-
4GG/	ho-	.	1B-	-ſti-	ter-
4AA/	.	.	.	.	.
4BB-/	.	.	.	.	.
4C/	.	.	.	.	.
4D/	.	.	1A	-li-	-mi-
4E/	.	.	.	.	.
2F\	.	.	.	.	.
=9-	=9-	=9-	=9-	=9-	=9-
2.C/	-ſti-	.	1G	-a	-no
4C/	-li-	.	.	.	.
*	*	*	*lig	*	*
[>1FF	-a	.	(1A	.	.
=10-	=10-	=10-	=10-	=10-	=10-
*	*	*	*custos:F	*	*
1FF,]	.	.	1F)	.	.
*	*	*	*Xlig	*	*
!	!	!	!LO:LB:g=original	!	!
1C	Da	.	1r	.	.
=11-	=11-	=11-	=11-	=11-	=11-
*lig	*	*	*	*	*
1D	ro-	.	1F	da	no-
*	*	*	*lig	*	*
1C	.	.	1G	ro-	-bis
*Xlig	*	*	*	*	*
!LO:LB:g=original	!	!	!	!	!
=12-	=12-	=12-	=12-	=12-	=12-
1FF,	-bur	.	1F	.	.
*	*	*	*Xlig	*	*
1C	da	.	1E	-bur	do-
=13-	=13-	=13-	=13-	=13-	=13-
2D/	ro-	.	1F	fer	-net
1F	-bur	.	.	.	.
.	.	.	2r	.	.
2E\	da	.	2C/	da	no-
=14-	=14-	=14-	=14-	=14-	=14-
2D/	ro-	.	2D/	ro-	-bis
2C/	-bur	.	2E/	-bur	do-
(4BB-/	fer	.	(2.F/	fer	-net
4C/)	.	.	.	.	.
(<4D/	au-	.	.	.	.
!	!	!	!LO:TX:b:t=g	!	!
4E\)	.	.	4G/)	.	.
=15-	=15-	=15-	=15-	=15-	=15-
2F\	-xi-	.	4A/	au-	in
.	.	.	4B-\	.	.
2F\	-li-	.	1c	-xi-	Pa-
1C,	-um	.	.	.	.
.	.	.	2c\	-li-	-tri-
=16-	=16-	=16-	=16-	=16-	=16-
2D/	da	.	2F/	-um	-a
2F\	ro-	.	4r	.	.
.	.	.	4A/	da	no-
2BB-,/	-bur	.	2B-\	ro-	-bis
2F\	fer	.	2A/	-bur	do-
=17-	=17-	=17-	=17-	=17-	=17-
(2BB-/	au-	.	2d\	fer	-net
2AA/)	.	.	2c\	au-	in
2.BB-/	-xi-	.	2.B-\	-xi-	Pa-
4BB-/	-li-	.	4B-\	-li-	-tri-
=18-	=18-	=18-	=18-	=18-	=18-
0FF;	-um	.	0A	-um	-a
!!LO:TX:t=P:problem:repetycja powinna być zwrócona w drugą stronę (?)
=19!|:-	=19!|:-	=19!|:-	=19!|:-	=19!|:-	=19!|:-
*	*	*	*lig	*	*
1.F	A-	.	1A	A-	.
.	.	.	1G	.	.
*	*	*	*Xlig	*	*
2F\	.	.	.	.	.
=20-	=20-	=20-	=20-	=20-	=20-
4F\	.	.	2.F/	.	.
4E\	.	.	.	.	.
4D/	.	.	.	.	.
4C/	.	.	4E/	.	.
2BB-/	.	.	2D/	.	.
2GG/	.	.	2.G/	.	.
=21-	=21-	=21-	=21-	=21-	=21-
2.AA/	.	.	.	.	.
.	.	.	4F/	.	.
.	.	.	1F	.	.
4BB-/	.	.	.	.	.
1C	.	.	.	.	.
*	*	*	*custos:F	*	*
.	.	.	2E/	.	.
=22-	=22-	=22-	=22-	=22-	=22-
!	!	!	!LO:LB:g=original	!	!
1.FF	-men	.	1F,	men	.
.	.	.	2.c\	A-	.
2.F\	A-	.	.	.	.
.	.	.	4B-\	.	.
=23-	=23-	=23-	=23-	=23-	=23-
.	.	.	4A/	.	.
4E\	.	.	4G/	.	.
4D/	.	.	1F,	-men	.
4C/	.	.	.	.	.
1.BB-	.	.	.	.	.
.	.	.	2.f\	A-	.
=24-	=24-	=24-	=24-	=24-	=24-
.	.	.	.	.	.
.	.	.	4e\	.	.
2AA/	.	.	4d\	.	.
.	.	.	4c\	.	.
1BB-	.	.	1B-	.	.
=25-	=25-	=25-	=25-	=25-	=25-
0FF;	-men	.	0A;	-men	.
!LO:LB:g=original	!	!	!LO:LB:g=original	!	!
=26||	=26-	=26-	=26||	=26-	=26-
*met(c|)	*	*	*met(c|)	*	*
!LO:TX:t=Loco Intonacio(n)is Canta	!	!	!LO:TX:t=Loco Intonacio Canta	!	!
1F	O	V-	1A	O	V-
2F	Sa-	-ni	2G	Sa-	-ni
2E	-lu-	tri-	2G	-lu-	tri-
=27-	=27-	=27-	=27-	=27-	=27-
4F	-ta-	-no-	2.F	-ta-	-no-
4E	.	.	.	.	.
4D/	.	.	.	.	.
4C	.	.	4E	.	.
2BB-	.	.	2D	-ris	-q(ue)
2GG	-ris	-q(ue)	2.G	ho-	Do-
=28-	=28-	=28-	=28-	=28-	=28-
2.AA	ho-	Do-	.	.	.
.	.	.	4F	.	.
.	.	.	1F	.	.
4BB-	.	.	.	.	.
.	.	.	.	.	.
2.C	.	.	.	.	.
.	.	.	2E	-sti-	-mi-
4C	-sti-	-mi-	.	.	.
=29-	=29-	=29-	=29-	=29-	=29-
!	!	!	!LO:N:vis=1	!	!
0FF	-a	-no	0F	-a	-no
==	==	==	==	==	==
*-	*-	*-	*-	*-	*-
!!!system-decoration: [(s1,s2)]
!!!RDF**kern: > = above
!!!RDF**kern: < = below
!!!ENC: Kamil Watkowski
!!!END: 2021-07-10
